X:1
T:Title
%%score { ( 1 3 ) | ( 2 4 ) }
L:1/8
Q:1/4=100
M:4/4
K:A
V:1 treble nm="Grand Piano"
V:3 treble 
V:2 bass 
V:4 bass 
V:1
 [CE]2 [CA]>[DB] [Ec]2 [Ec]2 | [Fd]4 [Ec]2 z2 | c2 B>^A B2 c2 | A4 z4 | %4
w: Geo.~C.~Stebbins * * * *||||
 [A,CE]2 [CA]>[DB] [Ec]2 [Ec]2 | [Fd]4 [Ec]2 z2 | c2 B>^A B2 c2 | [CA]6 z2 | [DF]2 z2 [Fd]2 z2 | %9
w: |||||
 [CE]2 [CA]>[DB] [Ec]4 | c2 B>^A B2 c2 | A4 z4 | F2 z2 [Fd]2 z2 | [CE]2 [CA]>[DB] [Ec]4 | %14
w: |||||
 c2 B>^A B2 c2 | [CA]6 z2 |] %16
w: ||
V:2
 [A,,A,]2 [A,,E,]>[A,,E,] [A,,A,]2 [A,,A,]2 | [A,,A,]4 [A,,A,]2 z2 | %2
 [E,G,E]2 [E,G,D]>[E,G,C] [E,G,D]2 [E,G,E]2 | z4 E2 z2 | A,,2 [A,,E,]>[A,,E,] [A,,A,]2 [A,,A,]2 | %5
 [A,,A,]4 [A,,A,]2 z2 | [E,G,E]2 [E,G,D]>[E,G,C] [E,G,D]2 [E,G,E]2 | [A,,A,]6 z2 | %8
 [D,A,]2 z2 [D,A,]2 z2 | [A,,A,]2 [A,,E,]>[A,,E,] [A,,A,]4 | %10
 [E,G,E]2 [E,G,D]>[E,G,C] [E,G,D]2 [E,G,E]2 | [A,,A,]6 z2 | [D,A,D]2 z2 [D,A,]2 z2 | %13
 [A,,A,]2 [A,,E,]>[A,,E,] [A,,A,]4 | [E,G,E]2 [E,G,D]>[E,G,C] [E,G,D]2 [E,G,E]2 | [A,,A,]6 z2 |] %16
V:3
 x8 | x8 | x8 | [A,C]6 z2 | x8 | x8 | x8 | x8 | x8 | x8 | x8 | C4- [CE]2 z2 | x8 | x8 | x8 | x8 |] %16
V:4
 x8 | x8 | x8 | A,,6 z2 | x8 | x8 | x8 | x8 | x8 | x8 | x8 | x8 | x8 | x8 | x8 | x8 |] %16

